X:70
T:Japanese Hornpipe, The
R:hornpipe
D:Seamus Begley and Steve Cooney: Meitheal
H:See also #41
Z:id:hn-hornpipe-70
M:C|
K:A
cd|:e2^de =decd|BcAB GAFG|EFGA Bcde|fe^de c2c=d|
e2^de =decd|BcAB GAFG|EFGA Bcde|1 (3gfe (3dcB A2 cd:|2 (3gfe (3dcB (3Ace a2||
|:c'2e2 c'2e2|e2b3eef|e2b3eef|e2a2a3b|
c'2e2 c'2e2|e2b3efg|a2g2 e2dB|1 A2G2 A4:|2 A2G2 A3B||
|:c2cc cBAc|B2BA BAGA|B3B BAAB|c2A2 A3B|
c2cc cBAc|B2BA BAGF|E2ED EDB,C|1 A,7B:|2 A,6||
